X:1
T:Zur Vermählungsfeier
T:Anton Bruckner (1824-1896) Edited by Alexander Reuter
T:Heinrich von der Mattig(?)
T:Zur Vermählungsfeier
T:Copyright © 2016 by CPDL This edition can be fully distributed, duplicated, performed, and recorded 
T:WAB 54
T:Copyright © 2016 by CPDL This edition can be fully distributed, duplicated, performed, and recorded 
T:Copyright © 2016 by CPDL This edition can be fully distributed, duplicated, performed, and recorded 
T:Copyright © 2016 by CPDL This edition can be fully distributed, duplicated, performed, and recorded 
T:Copyright © 2016 by CPDL This edition can be fully distributed, duplicated, performed, and recorded 
T:Copyright © 2016 by CPDL This edition can be fully distributed, duplicated, performed, and recorded 
T:Copyright © 2016 by CPDL This edition can be fully distributed, duplicated, performed, and recorded 
T:Copyright © 2016 by CPDL This edition can be fully distributed, duplicated, performed, and recorded 
T:Copyright © 2016 by CPDL This edition can be fully distributed, duplicated, performed, and recorded 
T:Copyright © 2016 by CPDL This edition can be fully distributed, duplicated, performed, and recorded 
C:Anton Bruckner
C:(1824-1896)
C:Edited by Alexander Reuter
Z:Heinrich von der Mattig(?)
Z:Copyright © 2016 by CPDL
Z:This edition can be fully distributed, duplicated, performed, and recorded
%%score [ 1 2 3 4 ]
L:1/8
M:4/4
K:D
V:1 treble-8 transpose=-12 nm="Tenor I" snm="T."
V:2 treble-8 transpose=-12 nm="Tenor II" snm="T."
V:3 bass nm="Bass I" snm="B."
V:4 bass nm="Bass II" snm="B."
V:1
"^Gemäßigt" z4 z2 z!p! A | B4 e2 e2 |"^cresc." (e4 d2) (ef) | !>!g2 !>!f2 !>!e2 (!>!de) | %4
w: Zwei|Her- zen, zwei|Her- * zen _|ha- ben sich ge- *|
"^dim." !>!d4 c2 z2 | z!pp! =ffe e2"^cresc." ^f2 | ^e4 f4 |"^cresc." =e8 | e4 z2 z!ff! A | %9
w: fun- den|und durch die E- he|sich ver-|bun-|den, Ge-|
 B3 c (d2 e)f | g3 G G2 G2 | A2 z2 z2 z _B | =c3 d _e2 (=fg) | (_a3 g"^dim." g =f2 =e | %14
w: seg- net hat _ des|Prie- sters Hand das|Paar, ge-|seg- net hat des _|Prie- * * * *|
!pp! d2) d2 d2 (e=f) | e4 z2 z =c | =f3 _d !>!d>_B BB | _g3"^cresc." _e _d>=c c!ff!_A | !>!_a6 a2 | %19
w: * sters Hand das *|Paar. Ge-|knüpft das Lie- bes- band, ge-|knüpft das Lie- bes- band, ge-|knüpft, ge-|
 (_a2 _g2 =f2) _e2 | (_e4"^dim." _d4- |!pp! d4) =c4 | _d6 z2 | z4 z!pp! =FFF | _G3 G =G2 G2 | %25
w: knüpft _ _ das|Lie- *|* bes-|band.|Hat euch ver-|eint des Geist der|
 _A2 A2 z!p! =AAA | _B3"^cresc." B B2 =c2 | !>!d2 !>!D2 z4 | z!ppp! ^f^e^d e2 f2 | %29
w: Wahr- heit, habt ihr er-|fasst die Pflicht mir|Klar- heit,|dann ist der E- he|
 ^g3 B"^cresc." B2 _B2 |"^dolce" =g3 g =d2 _e2 |!pp! _g2- ff ^e2 ^d2 |!ppp! ^c8- | c3 c c2 B2 | %34
w: Hei- lig- tum ein|himm- li- sches, ein|himm- * li- sches, ein|himm-|* li- sches E-|
 ^A8- | A4 ^G4 | F4 z4 | z4 z2 z!p! A | B3 B e2 e2 | (!>!e4"^cresc." d2) (ef) | %40
w: ly-|* si-|um.|So|mö- ge euch für's|gan- * ze, _|
!f! (g2 f2 e2) (de) |"^dim." d4 c2 z2 | z2!pp! =f2 f2 f2 | (=f4 _e2) d2 |"^cresc." (d4 =e2) =f2 | %45
w: gan- * * ze _|Le- ben|der Him- mel|Heil _ und|Se- * gen|
 =f2 =e2 z4 | z4 z!p! ^e ^f>f | ^e z z2 z"^cresc." fff |"^cresc." g6 g2 | ^g>g g z z2 z2 | %50
w: ge- ben,|auch mein- Ge-|bet, auch mein Ge-|bet ruft|heu- te laut:|
 z4 z2 z3/2!ff! d/ | (d2 e2) f2 z2 | z2 z3/2 d/ e2 f2 | z2 z3/2 d/ e2 f2 | (g4 a4 | g4) f4 | %56
w: Gott|seg- * ne,|Gott seg- ne,|Gott seg- ne,|seg- *|* ne,|
 (f4 d4 | c4) d4 | (d4 c2) B2 | c4 c4 | d3 z z4 | z2 z3/2!pp! e/ f2 (ed) | d6 d2 | d6 d2 | %64
w: seg- *|* ne|Bräu- * ti-|gam und|Braut;|Gott seg- ne, _|seg- ne,|seg- ne|
!<(! d6!<)! d2 |!>(! d4!>)! d4 |!ppp! d8- | d8- | d6 z2 |] %69
w: Bräu- ti-|gam und|Braut!|_||
V:2
 z4 z2 z!p! A | A4 G2 G2 |"^cresc." F6 F2 | !>!B2 !>!c2 !>!e2 (!>!AB) |"^dim." !>!A4 A2 z2 | %5
w: Zwei|Her- zen, zwei|Her- zen|ha- ben sich ge- *|fun- den|
 z!pp! ddd c2"^cresc." c2 | (c2 B2) A4 | (A4"^cresc." ^G4) | A4 z2 z!ff! A | A2 GG F2 dd | %10
w: und durch die E- he|sich * ver-|bun- *|den, Ge-|seg- net, ge- seg- net, ge-|
 d>B BB E>E EG | C2 z2 z2 z _B | _B2 _A2 G2 _e2 | (_e4"^dim." =c2) cc |!pp! =c2 (BA) B2 B2 | %15
w: seg- net hat des Prie- sters Hand das|Paar, ge-|seg- net hat des|Prie- * sters, des|Prie- sters _ Hand das|
 =c4 z4 | z _AAA !>!=A>_B B z | z _BB"^cresc."B _A>A A z | z2!ff! !>!_c2 !>!c2 !>!c2 | !>!_B6 B2 | %20
w: Paar.|Ge- knüft das Lie- bes- band,|ge- knüpft das Lie- bes- band,|ge- knüpft, ge-|knüpft das|
"^dim." _A8- |!pp! A4 _A4 | _A6 z2 | z4 z!pp! =FFF | _G3 G =G2 G2 | _A2 A2 z!p! =AAA | %26
w: Lie-|* bes-|band.|Hat euch ver-|eint des Geist der|Wahr- heit, habt ihr er-|
 _B3"^cresc." B B2 =c2 | !>!d2 !>!D2 z4 | z!ppp! ^AAA =B2 A2 | =B3 ^G"^cresc." G2 _A2 | %30
w: fasst die Pflicht mir|Klar- heit,|dann ist der E- he|Hei- lig- tum ein|
"^dolce" =G3 G _A2 _B2 |!pp! _e2- ^dd ^c2 =B2 |!ppp! (^A8 | ^G3) G G2 G2 | (^F8 | ^E4) E4 | %36
w: himm- li- sches, ein|himm- * li- sches, ein|himm-|* li- sches E-|ly-|* si-|
 ^C4 z4 | z4 z2 z!p! A | A3 A =G2 G2 | !>!F6"^cresc." F2 |!f! (B2 c2 e2) (AB) |"^dim." A4 A2 z2 | %42
w: um.|So|mö- ge euch für's|gan- ze,|gan- * * ze _|Le- ben|
 z2!pp! d2 d2 d2 | _B6 (BA) |"^cresc." ^G6 G2 | ^G2 A2 z4 | z2 z!p! ^c c>c =dc | %47
w: der Him- mel|Heil und _|Se- gen|ge- ben,|auch mein Ge- bet ruft|
 =B2 z"^cresc." B =c>c cc | =c3"^cresc." c c2 ^c2 | d>d d z z2 z3/2!ff! d/ | %50
w: laut, auch mein Ge- bet ruft|heu- te laut, ruft|heu- te laut: Gott|
 !>!d2 !>!d2 !>!d2 !>!d2 | !>!d2 !>!c2 !>!d2 z3/2 d/ | !>!d2 !>!d2 d2 d z/ d/ | %53
w: seg- ne Bräu- ti-|gam und Braut! Gott|seg- ne, seg- ne, Gott|
 !>!d2 !>!d2 !>!d2 !>!d2 | (d8 | B4) B4 | (c4 B4 | A2 G2) (F2 G2) | A6 A2 | A4 A4 | %60
w: seg- ne, seg- ne,|seg-|* ne,|seg- *|* * ne _|Bräu- ti-|gam und|
 A3 z z2 z3/2!pp! =c/ | =c2 c2 c2 A2 | (d4 =c2) B2 | =c6 c2 |!<(! B6!<)! B2 |!>(! B4!>)! B4 | %66
w: Braut! Gott|seg- ne, seg- ne,|seg- * ne,|seg- ne|Bräu- ti-|gam und|
!ppp! A8- | A8- | A6 z2 |] %69
w: Braut!|_||
V:3
 z8 | z4 z2!p! A,2 |"^cresc." A,4 D4 | !>!D2 !>!C2 !>!B,2 (!>!A,G,) |"^dim." !>!F,4 E,2 z2 | %5
w: |Zwei|Her- zen|ha- ben sich ge- *|fun- den|
 z!pp! ^G,G,G, A,2"^cresc." A,2 | ^G,4 F,4 |"^cresc." D8 | C4 z4 | z2 z!ff! E, (D, D2) C/C/ | %10
w: und durch die E- he|sich ver-|bun-|den,|Ge- seg- * net, ge-|
 B,>D, D,D, E,>E, E,D, | E,E, E,E,/E,/ A, z z2 | z2 z =F, (_E, _E2) D | =C2 _B,2"^dim." _A,2 G,G, | %14
w: seg- net hat des Prie- sters Hand das|Paar, ge- seg- net das Paar,|ge- seg- * net|hat des Prie- sters, des|
!pp! G,2 G,2 G,2 G,2 | G,4 z4 | z =F,F,F, !>!F,>_G, G, z | z _B,_E,"^cresc."_G, =F,>E, E, z | %18
w: Prie- sters Hand das|Paar.|Ge- knüft das Lie- bes- band,|ge- knüpft das Lie- bes- band,|
 z2!ff! !>!_D,2 !>!D,2 !>!D,2 | (=D,2 _E,2 A,2) _G,2 |"^dim." (=F,8 |!pp! _E,2 =F,4) _G,2 | %22
w: ge- knüpft, ge-|knüpft _ _ das|Lie-|* * bes-|
 =F,6 z2 | z4 z!pp! =F,F,F, | _G,3 G, =G,2 G,2 | _A,2 A,2 z!p! =A,A,A, | _B,3"^cresc." B, B,2 =C2 | %27
w: band.|Hat euch ver-|eint des Geist der|Wahr- heit, habt ihr er-|fasst die Pflicht mir|
 !>!D2 !>!D,2 z4 | z!ppp! ^CCC C2 C2 | ^E,3 E,"^cresc." E,2 =F,2 |"^dolce" _B,3 B, =F,2 G,2 | %31
w: Klar- heit,|dann ist der E- he|Hei- lig- tum ein|himm- li- sches, ein|
!pp! ^F,3 F, F,2 F,2 |!ppp! (F,4 =E,4 | ^D,3) D, D,2 D,2 | (^C,8 | =B,,4) B,,4 | ^A,,4 z4 | z8 | %38
w: himm- li- sches, ein||* li- sches E-|ly-|* si-|um.||
 z4 z2!p! A,2 | A,3 A,"^cresc." D2 D2 |!f! (D2 C2 B,2) (A,G,) |"^dim." F,4 E,2 z2 | %42
w: So|mö- ge euch für's|gan- * * ze _|Le- ben|
 z2!pp! _A,2 A,2 A,2 | (G,4 _G,2) =F,2 |"^cresc." (=F,4 =E,2) D,2 | D2 C2 z4 | %46
w: der Him- mel|Heil _ und|Se- * gen|ge- ben,|
 z!p! ^G, G,>G, G,G,A,A, | ^G,G,"^cresc." G,>G, A,A,A,A, | _B,2 B,"^cresc."B, B,2 B,2 | %49
w: auch mein Ge- bet ruft heu- te|laut, auch mein Ge- bet ruft heu- te|laut, mein Ge- bet ruft|
 =B,>B, B, z z2 z2 | z2 z3/2!ff! D/ !>!D2 !>!C2 | (B,2 G,2) A,2 z3/2 D/ | %52
w: heu- te laut:|Gott seg- ne,|seg- * ne, Gott|
 !>!D2 !>!C2 B,2 A, z/ D/ | !>!D2 !>!C2 !>!B,2 !>!A,2 | (B,4 F,4 | E,4) F,4 | (A,4 =G,2 F,2 | %57
w: seg- ne, seg- ne, Gott|seg- ne, seg- ne,|seg- *|* ne,|seg- * *|
 E,4) D,4 | E,6 D,2 | E,4 G,4 | F,3 z z4 | z2 z3/2!pp! G,/ A,2 F,2 | (D,3 E, F,2) G,2 | A,6 A,2 | %64
w: * ne|Bräu- ti-|gam und|Braut!|Gott seg- ne,|seg- * * ne,|seg- ne|
!<(! (A,4 G,2)!<)! F,2 |!>(! G,4!>)! G,4 |!ppp! (G,8 | F,4 E,4 | F,6) z2 |] %69
w: Bräu- * ti-|gam und|Braut!|_ _||
V:4
 z8 | z4 z2!p! C,2 |"^cresc." D,4 B,,4 | !>!B,2 !>!A,2 !>!G,2 (!>!F,G,) | %4
w: |Zwei|Her- zen|ha- ben sich ge- *|
"^dim." (!>!A,2 A,,2) A,,!pp!A,,A,,A,, | (_B,,4 A,,2)"^cresc." ^F,,2 | ^C,4 D,4 |"^cresc." E,8 | %8
w: fun- * den und durch die|E- * he|sich ver-|bun-|
 A,,4 z4 | z2 z!ff! ^A,, B,,2 =A,,A,, | G,,>G,, G,,G,, =C,>C, C,B,, | A,,2 z2 z4 | %12
w: den,|Ge- seg- net, ge-|seg- net hat des Prie- sters Hand das|Paar,|
 z2 z B,, =C,2 _B,,2 | _A,,2 _E,2"^dim." =F,2 =C,C, |!pp! G,,2 G,,2 G,,2 G,,2 | =C,4 z4 | %16
w: ge- seg- net|hat des Prie- sters, des|Prie- sters Hand das|Paar.|
 z _D,D,D, !>!D,>D, D, z | z =D,_E,"^cresc."_G,, _A,,>A,, A,, z | z2!ff! !>!=F,,2 !>!F,,2 !>!F,,2 | %19
w: Ge- knüft das Lie- bes- band,|ge- knüpft das Lie- bes- band,|ge- knüpft, ge-|
 !>!_G,,6 G,,2 |"^dim." _A,,8- |!pp! A,,4 _A,,4 | _D,6 z2 | z4 z!pp! =F,F,F, | _G,3 G, =G,2 G,2 | %25
w: knüpft das|Lie-|* bes-|band.|Hat euch ver-|eint des Geist der|
 _A,2 A,2 z!p! =A,,A,,A,, | _B,,3"^cresc." B,, B,,2 =C,2 | !>!D,2 !>!D,2 z!ppp! D,D,D, | ^C,6 C,2 | %29
w: Wahr- heit, habt ihr er-|fasst die Pflicht mir|Klar- heit, dann ist der|E- he|
 C,3 C,"^cresc." C,2 =D,2 |"^dolce" _E,3 E, E,2 E,2 |!pp! _C,2- =B,,B,, B,,2 B,,2 |!ppp! (^F,,8 | %33
w: Hei- lig- tum ein|himm- li- sches, ein|himm- * li- sches, ein||
 ^G,,3) G,, G,,2 G,,2 | ^C,8- | C,4 ^C,4 | F,,4 z4 | z8 | z4 z2!p! C,2 | %39
w: * li- sches E-|ly-|* si-|um.||So|
 =D,3 D,"^cresc." B,,2 B,,2 |!f! (B,2 A,2 G,2) (F,G,) |"^dim." (A,2 A,,2) A,,2!pp! A,,2 | %42
w: mö- ge euch für's|gan- * * ze _|Le- * ben der|
 _B,,6 B,,2 | _B,,6 B,,2 |"^cresc." =A,,6 A,,2 | A,,2 A,,2 z2 z!p! C, | ^C,>C, C,C, C,C,C,C, | %47
w: Him- mel|Heil und|Se- gen|ge- ben, auch|mein Ge- bet ruft heu- te laut, auch|
 D,>D,"^cresc." D,D, ^D,D,D,D, | E,2"^cresc." E,2 E,2 E,2 | =F,>F, F, z z2 z3/2!ff! D/ | %50
w: mein Ge- bet ruft heu- te laut, auch|mein Ge- bet ruft|heu- te laut: Gott|
 !>!D2 !>!C2 !>!B,2 !>!A,2 | !>!G,2 !>!E,2 !>!D,2 z2 | z2 z3/2 D/ !>!D2 !>!D,2 | %53
w: seg- ne Bräu- ti-|gam und Braut!|Gott seg- ne,|
 z2 z3/2 D/ !>!D2 !>!D,2 | (G,4 D,4 | E,4) B,,4 | (F,,4 G,,4 | A,,4) B,,4 | A,,6 A,,2 | A,,4 A,,4 | %60
w: Gott seg- ne,|seg- *|* ne,|seg- *|* ne|Bräu- ti-|gam und|
 D,,3 z/!pp! D,/ D,2 D,2 | D,6 =C,2 | (B,,4 A,,2) G,,2 | F,,6 F,,2 |!<(! G,,6!<)! G,,2 | %65
w: Braut! Gott seg- ne,|seg- ne,|seg- * ne,|seg- ne|Bräu- ti-|
!>(! G,,4!>)! G,,4 |!ppp! D,8- | (D,8 | D,,6) z2 |] %69
w: gam und|Braut!|_||

